icons/pivot-table-24.svg

<svg width="24" height="24" viewBox="0 0 24 24" fill="none" xmlns="http://www.w3.org/2000/svg">
<path fill-rule="evenodd" clip-rule="evenodd" d="M2 3.75C2 2.7835 2.7835 2 3.75 2H20.25C21.2165 2 22 2.7835 22 3.75V10C22 10.4142 21.6642 10.75 21.25 10.75C20.8358 10.75 20.5 10.4142 20.5 10V8.75H8.75V20.5H10C10.4142 20.5 10.75 20.8358 10.75 21.25C10.75 21.6642 10.4142 22 10 22H3.75C2.7835 22 2 21.2165 2 20.25V3.75ZM7.25 20.5V8.75H3.5V20.25C3.5 20.3881 3.61193 20.5 3.75 20.5H7.25ZM3.5 7.25H7.25V3.5H3.75C3.61193 3.5 3.5 3.61193 3.5 3.75V7.25ZM8.75 3.5V7.25H20.5V3.75C20.5 3.61193 20.3881 3.5 20.25 3.5H8.75Z" fill="black"/>
<path d="M21.25 12.3125C21.6642 12.3125 22 12.6483 22 13.0625V15.6875C22 17.7586 20.3211 19.4375 18.25 19.4375H14.7481L16.7803 21.4697C17.0732 21.7626 17.0732 22.2374 16.7803 22.5303C16.4874 22.8232 16.0126 22.8232 15.7197 22.5303L12.4697 19.2803C12.1768 18.9874 12.1768 18.5126 12.4697 18.2197L15.7197 14.9697C16.0126 14.6768 16.4874 14.6768 16.7803 14.9697C17.0732 15.2626 17.0732 15.7374 16.7803 16.0303L14.8732 17.9375H18.25C19.4926 17.9375 20.5 16.9301 20.5 15.6875V13.0625C20.5 12.6483 20.8358 12.3125 21.25 12.3125Z" fill="black"/>
</svg>

<svg xmlns="http://www.w3.org/2000/svg" width="24" height="24" viewBox="0 0 24 24"><path d="M2 3.75C2 2.783 2.783 2 3.75 2h16.5c.966 0 1.75.783 1.75 1.75V10a.75.75 0 0 1-1.5 0V8.75H8.75V20.5H10a.75.75 0 0 1 0 1.5H3.75A1.75 1.75 0 0 1 2 20.25Zm6.75-.25v3.75H20.5v-3.5a.25.25 0 0 0-.25-.25Zm-1.5 17V8.75H3.5v11.5c0 .138.112.25.25.25ZM3.5 7.25h3.75V3.5h-3.5a.25.25 0 0 0-.25.25Z"/><path d="M21.25 12.312a.75.75 0 0 1 .75.75v2.626a3.75 3.75 0 0 1-3.75 3.75h-3.502l2.032 2.032a.749.749 0 1 1-1.06 1.06l-3.25-3.25a.749.749 0 0 1 0-1.06l3.25-3.25a.749.749 0 1 1 1.06 1.06l-1.907 1.908h3.377a2.25 2.25 0 0 0 2.25-2.25v-2.626a.75.75 0 0 1 .75-.75Z"/></svg>
